icons/qdrant-dark.svg

<svg width="256" height="256" viewBox="0 0 256 256" fill="none" xmlns="http://www.w3.org/2000/svg">
<path d="M196 0H60C26.8629 0 0 26.8629 0 60V196C0 229.137 26.8629 256 60 256H196C229.137 256 256 229.137 256 196V60C256 26.8629 229.137 0 196 0Z" fill="#282828"/>
<path fill-rule="evenodd" clip-rule="evenodd" d="M174.755 208.13L170.956 103.387L164.075 75.7712L210 80.633V207.337L181.946 223.528L174.755 208.13Z" fill="#24386C"/>
<path fill-rule="evenodd" clip-rule="evenodd" d="M209.999 80.6317L181.946 96.834L124.053 84.1349L56.2903 111.724L45.0005 80.6317L86.2439 56.8158L127.5 33L168.744 56.8158L209.999 80.6317Z" fill="#7589BE"/>
<path fill-rule="evenodd" clip-rule="evenodd" d="M45 80.6316L73.0538 96.8339L89.3162 145.197L144.225 189.131L127.5 223.526L86.2443 199.709L45 175.893V80.6299" fill="#B2BFE8"/>
<path fill-rule="evenodd" clip-rule="evenodd" d="M146.099 163.717L127.5 191.135V223.527L153.891 208.3L167.489 187.994" fill="#24386C"/>
<path fill-rule="evenodd" clip-rule="evenodd" d="M127.511 158.75L101.109 113.037L106.796 97.886L128.415 87.4041L140.402 99.465L153.891 113.037L127.511 158.75Z" fill="#7589BE"/>
<path fill-rule="evenodd" clip-rule="evenodd" d="M101.109 113.039L127.5 128.265V158.744L103.091 159.795L88.3271 140.942L101.109 113.039Z" fill="#B2BFE8"/>
<path fill-rule="evenodd" clip-rule="evenodd" d="M127.5 128.263L153.891 113.037L171.852 142.943L150.116 160.901L127.5 158.742V128.263Z" fill="#24386C"/>
<path fill-rule="evenodd" clip-rule="evenodd" d="M153.891 208.297L181.945 223.526V96.834L154.716 81.1192L127.5 65.405L100.271 81.1192L73.0552 96.834V159.703L100.271 175.418L127.5 191.134L153.891 175.893V208.297ZM153.891 143.501L127.5 158.741L101.109 143.501V113.035L127.5 97.7947L153.891 113.035V143.501Z" fill="#DC244C"/>
<path d="M127.511 191.146V158.749L101.258 143.64V175.983L127.511 191.146Z" fill="url(#paint0_linear_765_417)"/>
<defs>
<linearGradient id="paint0_linear_765_417" x1="122.671" y1="164.948" x2="96.5102" y2="164.948" gradientUnits="userSpaceOnUse">
<stop stop-color="#FF3364"/>
<stop offset="1" stop-color="#C91540" stop-opacity="0"/>
</linearGradient>
</defs>
</svg>

<svg xmlns="http://www.w3.org/2000/svg" width="256" height="256" fill="none"><path fill="#282828" d="M196 0H60C26.863 0 0 26.863 0 60v136c0 33.137 26.863 60 60 60h136c33.137 0 60-26.863 60-60V60c0-33.137-26.863-60-60-60"/><path fill="#24386C" fill-rule="evenodd" d="m174.755 208.13-3.799-104.743-6.881-27.616L210 80.633v126.704l-28.054 16.191z" clip-rule="evenodd"/><path fill="#7589BE" fill-rule="evenodd" d="m209.999 80.632-28.053 16.202-57.893-12.7-67.763 27.59L45 80.632l41.244-23.816L127.5 33l41.244 23.816z" clip-rule="evenodd"/><path fill="#B2BFE8" fill-rule="evenodd" d="m45 80.632 28.054 16.202 16.262 48.363 54.909 43.934-16.725 34.395-41.256-23.817L45 175.893V80.63" clip-rule="evenodd"/><path fill="#24386C" fill-rule="evenodd" d="M146.099 163.717 127.5 191.135v32.392l26.391-15.227 13.598-20.306" clip-rule="evenodd"/><path fill="#7589BE" fill-rule="evenodd" d="m127.511 158.75-26.402-45.713 5.687-15.151 21.619-10.482 11.987 12.061 13.489 13.572z" clip-rule="evenodd"/><path fill="#B2BFE8" fill-rule="evenodd" d="m101.109 113.039 26.391 15.226v30.479l-24.409 1.051-14.764-18.853z" clip-rule="evenodd"/><path fill="#24386C" fill-rule="evenodd" d="m127.5 128.263 26.391-15.226 17.961 29.906-21.736 17.958-22.616-2.159z" clip-rule="evenodd"/><path fill="#DC244C" fill-rule="evenodd" d="m153.891 208.297 28.054 15.229V96.834l-27.229-15.715L127.5 65.405l-27.229 15.714-27.216 15.715v62.869l27.216 15.715 27.229 15.716 26.391-15.241zm0-64.796-26.391 15.24-26.391-15.24v-30.466l26.391-15.24 26.391 15.24z" clip-rule="evenodd"/><path fill="url(#paint0_linear_765_417)" d="M127.511 191.146v-32.397l-26.253-15.109v32.343z"/><defs><linearGradient id="paint0_linear_765_417" x1="122.671" x2="96.51" y1="164.948" y2="164.948" gradientUnits="userSpaceOnUse"><stop stop-color="#FF3364"/><stop offset="1" stop-color="#C91540" stop-opacity="0"/></linearGradient></defs></svg>
